X:1
T:Toggenburger Naturjodel.1473. Bb
S:Naturjodel rund um den Saentis (www.roothuus-gonten.ch)
%%partsbox
%P:
Q:1/4=66
R:Naturjodel
M:6/4
L:1/4
K:Bb %  (%%MIDI gchordo) 
[P:A] F>F dF=E c/(F/ |  "Bb"F>)DBFd G/F/ | "F7"F>CAF e/>d/c | "Bb"F>DBFd2 | 
w: Ja la du ja lu du-ja_ la du ja u ho-li  ja lo du ja u-lu u  ja lo du ja u 
"F7"F>F dF=E c/(F/ |  "Bb"F>)DBFd G/F/ | "F7"F>CAF e/>d/c | "Bb"B4z2 |] 
w: ja la du ja lu du-ja_ lo du ja u ho-li  ja lo du ja u-lu-u  u 
[P:B]
B/c/ | "Bb"d>BBD"F7"cF | d>BBDF f/>=e/ | c>AACF e/f/ | "Bb"d>BBD !fermata!F B/c/ | 
w: ju-lü  u lü du ja du ja  u lü du ja la u-lu  u lü du jo ja u-lü  u lü du ja lo u-lü 
"Bb"d>BBD"F7"cF | "Bb"d>BBDF f/>=e/ | "F7"c>AACF A/c/ | "Bb"B4z2 |] 
w: u lü du ja du ja  u lü du ja la u-lu  u lü du jo ja u-lu  u 
[P:C]
F>G=EFc2 | "Bb"F>GDFB d/g/ | "F7"f>ecF e/>d/ c |  "Bb"B>DFD3 | 
w:ja la lo la du  ja la jo la u u-lu  u lu du ja u-lu ü  u ja lo jo 
"F7"F>G=EFc2 | "Bb"F>GDFB d/g/ | "F7"f>ecF e/>d/ c | "Bb"B4z2 |] 
w:ja la lo la du  ja la jo la u u-lu  u lu du ja u-lu ü   u 
W:
%W:Parts: ABC
W:Toggenburger Naturjodel
W: mit Talerschwingen
W:
W: LP Toggeburger Lüüt, Tell Record TLP 5047
W:Jodelklub Ebnat-Kappel, Jodlerin, Lina Bösch-Lusti
W: 
W: Dieser Jodel war zu um 1960 bei den Ebnater Jodlern
W: unter dem Titel "De Beckijodel" bekannt.
W:
W:https://www.roothuus-gonten.ch/mediendateien/jodel/pdf/Toggenburger Naturjodel.pdf
W: *AUDIO*:  www.roothuus-gonten.ch/cms/index.php/de/naturjodel-rund-um-den-saentis
% © 2017 ROOTHUUS GONTEN. # 	1473.10 (086B4)
% Feb. 16 2019

